svg/Pictogram/pictograms-nps-misc-emergencies.svg

<svg xmlns="http://www.w3.org/2000/svg" viewBox="0 0 256 256"><path d="m0 0c-.541 0-.982-.439-.982-.98v-7.528c0-.541.441-.982.982-.982h7.527c.541 0 .981.441.981.982v7.528c0 .541-.44.98-.981.98h-7.527" fill="#fff" transform="matrix(25.88211 0 0-25.88211 30.588 5.207)"/><path d="m0 0h-.699v2.691l-.588-.478-.35.453 1.018.82h.619v-3.486m-3.75-.061c-.256 0-.494.041-.734.125l.089.565c.184-.08.375-.139.61-.139.603 0 .808.559.828 1.078l-.001.001c-.164-.244-.379-.349-.674-.349-.66 0-1.019.419-1.019 1.064 0 .754.371 1.252 1.158 1.252.969 0 1.184-.803 1.184-1.623 0-.943-.305-1.983-1.432-1.983m5.979 3.547h.619v-3.486h-.7v2.691l-.589-.478-.35.453 1.02.82zm.765 3.393h-7.527c-.653 0-1.182-.529-1.182-1.182v-7.527c0-.652.529-1.182 1.182-1.182h7.527c.652 0 1.182.53 1.182 1.182v7.527c0 .653-.53 1.182-1.182 1.182" transform="matrix(25.88211 0 0-25.88211 147.92 178.04)"/><path d="m0 0h-.053v-.219h.053c.08 0 .172.012.172.114 0 .097-.09.105-.172.105" transform="matrix(25.88211 0 0-25.88211 95.95 179.05)"/><path d="m0 0c-.324 0-.459-.314-.459-.623 0-.34.141-.654.475-.654.339 0 .468.308.468.658 0 .33-.138.619-.484.619" transform="matrix(25.88211 0 0-25.88211 57.28 99.74)"/></svg>

<?xml version="1.0" encoding="UTF-8" standalone="no"?>
<!-- Created with Inkscape (http://www.inkscape.org/) -->
<svg
   xmlns:dc="http://purl.org/dc/elements/1.1/"
   xmlns:cc="http://creativecommons.org/ns#"
   xmlns:rdf="http://www.w3.org/1999/02/22-rdf-syntax-ns#"
   xmlns:svg="http://www.w3.org/2000/svg"
   xmlns="http://www.w3.org/2000/svg"
   xmlns:sodipodi="http://sodipodi.sourceforge.net/DTD/sodipodi-0.dtd"
   xmlns:inkscape="http://www.inkscape.org/namespaces/inkscape"
   width="256"
   height="256"
   id="svg8302"
   sodipodi:version="0.32"
   inkscape:version="0.46"
   version="1.0"
   sodipodi:docname="pictograms-nps-misc-emergencies-2.svg"
   inkscape:output_extension="org.inkscape.output.svg.inkscape">
  <defs
     id="defs8304">
    <inkscape:perspective
       sodipodi:type="inkscape:persp3d"
       inkscape:vp_x="0 : 526.18109 : 1"
       inkscape:vp_y="0 : 1000 : 0"
       inkscape:vp_z="744.09448 : 526.18109 : 1"
       inkscape:persp3d-origin="372.04724 : 350.78739 : 1"
       id="perspective8310" />
  </defs>
  <sodipodi:namedview
     id="base"
     pagecolor="#ffffff"
     bordercolor="#666666"
     borderopacity="1.0"
     gridtolerance="10000"
     guidetolerance="10"
     objecttolerance="10"
     inkscape:pageopacity="0.0"
     inkscape:pageshadow="2"
     inkscape:zoom="0.7"
     inkscape:cx="61.634556"
     inkscape:cy="136.73676"
     inkscape:document-units="px"
     inkscape:current-layer="layer1"
     showgrid="false"
     inkscape:window-width="738"
     inkscape:window-height="674"
     inkscape:window-x="0"
     inkscape:window-y="198" />
  <metadata
     id="metadata8307">
    <rdf:RDF>
      <cc:Work
         rdf:about="">
        <dc:format>image/svg+xml</dc:format>
        <dc:type
           rdf:resource="http://purl.org/dc/dcmitype/StillImage" />
      </cc:Work>
    </rdf:RDF>
  </metadata>
  <g
     inkscape:label="Layer 1"
     inkscape:groupmode="layer"
     id="layer1">
    <g
       id="g2990"
       transform="matrix(25.882115,0,0,-25.882115,30.587898,5.2070674)">
      <path
         d="M 0,0 C -0.541,0 -0.982,-0.439 -0.982,-0.98 L -0.982,-8.508 C -0.982,-9.049 -0.541,-9.49 0,-9.49 L 7.527,-9.49 C 8.068,-9.49 8.508,-9.049 8.508,-8.508 L 8.508,-0.98 C 8.508,-0.439 8.068,0 7.527,0 L 0,0 z"
         style="fill:#ffffff;fill-opacity:1;fill-rule:nonzero;stroke:none"
         id="path2992" />
    </g>
    <g
       id="g2994"
       transform="matrix(25.882115,0,0,-25.882115,147.91629,178.04307)">
      <path
         d="M 0,0 L -0.699,0 L -0.699,2.691 L -1.287,2.213 L -1.637,2.666 L -0.619,3.486 L 0,3.486 L 0,0 z M -3.75,-0.061 C -4.006,-0.061 -4.244,-0.02 -4.484,0.064 L -4.395,0.629 C -4.211,0.549 -4.02,0.49 -3.785,0.49 C -3.182,0.49 -2.977,1.049 -2.957,1.568 L -2.967,1.578 C -3.131,1.334 -3.346,1.229 -3.641,1.229 C -4.301,1.229 -4.66,1.648 -4.66,2.293 C -4.66,3.047 -4.289,3.545 -3.502,3.545 C -2.533,3.545 -2.318,2.742 -2.318,1.922 C -2.318,0.979 -2.623,-0.061 -3.75,-0.061 M 2.229,3.486 L 2.848,3.486 L 2.848,0 L 2.148,0 L 2.148,2.691 L 1.559,2.213 L 1.209,2.666 L 2.229,3.486 z M 2.994,6.879 L -4.533,6.879 C -5.186,6.879 -5.715,6.35 -5.715,5.697 L -5.715,-1.83 C -5.715,-2.482 -5.186,-3.012 -4.533,-3.012 L 2.994,-3.012 C 3.646,-3.012 4.176,-2.482 4.176,-1.83 L 4.176,5.697 C 4.176,6.35 3.646,6.879 2.994,6.879"
         style="fill:#000000;fill-opacity:1;fill-rule:nonzero;stroke:none"
         id="path2996" />
    </g>
    <g
       id="g2998"
       transform="matrix(25.882115,0,0,-25.882115,95.950384,179.05247)">
      <path
         d="M 0,0 L -0.053,0 L -0.053,-0.219 L 0,-0.219 C 0.08,-0.219 0.172,-0.207 0.172,-0.105 C 0.172,-0.008 0.082,0 0,0"
         style="fill:#000000;fill-opacity:1;fill-rule:nonzero;stroke:none"
         id="path3000" />
    </g>
    <g
       id="g3002"
       transform="matrix(25.882115,0,0,-25.882115,57.277121,99.739112)">
      <path
         d="M 0,0 C -0.324,0 -0.459,-0.314 -0.459,-0.623 C -0.459,-0.963 -0.318,-1.277 0.016,-1.277 C 0.355,-1.277 0.484,-0.969 0.484,-0.619 C 0.484,-0.289 0.346,0 0,0"
         style="fill:#000000;fill-opacity:1;fill-rule:nonzero;stroke:none"
         id="path3004" />
    </g>
  </g>
</svg>
